X:1
T:Let Heaven Rejoice
T:Let Heaven Rejoice
T:Pol Nepomuceno
%%score [ 1 2 3 4 ]
L:1/8
Q:1/4=76
M:6/8
K:D
V:1 treble nm="Soprano" snm="S."
V:2 treble nm="Alto" snm="A."
V:3 bass nm="Tenor" snm="T."
V:4 bass nm="Bass" snm="B."
V:1
 z4 z A | AFG A2 D | E2 F A,2 A, | D2 F E2 D | A3- A2 A | BAB E2 B | A2 F D2 D | E2 F G2 E | D6 | %9
w: Let|hea- ven re- joice and|earth be glad let|all cre- a- tion|sing, * let|chil- dren pro- claim to|ev'- ry land Ho-|san- na to our|King!|
 F2 F F2 B, | EDE F2 B, | EFE D2 E | F3- F2 z | B,2 D C2 E | D2 F E2 F | G2 F E2 D | E3- E2 A | %17
w: Sound the trum- pet|in to the night the|day of the Lord is|near, *|Wake His peo- ple|lift your voice pro-|clain in to the|world! * Let|
 AFG A2 D | E2 F A,2 A, | D2 F E2 D | A3- A2 A | BAB E2 B | A2 F D2 D | E3 F3 | G3 B3 | d3- d2 d | %26
w: hea- ven re- joice and|earth be glad let|all cre- a- tion|sing, * let|chil- dren pro- claim to|ev'- ry land Ho-|san- na|to our|King * Ho-|
 d2 d d2 d | [df]6 |] %28
w: san- na to ou|King!|
V:2
 z4 z A | FDD D2 D | B,2 B, A,2 A, | A,2 D B,2 B, | E3- E2 E | DDD E2 E | F2 D B,2 B, | %7
w: Let|hea- ven re- joice and|earth be glad let|all cre- a- tion|sing, * let|chil- dren pro- claim to|ev'- ry land Ho-|
 B,2 B, C2 C | A,6 | F2 F F2 B, | EDE F2 B, | EFE D2 D | C3- C2 z | B,2 D C2 E | D2 F E2 F | %15
w: san- na to our|King!|Sound the trum- pet|in to the night the|day of the Lord is|near, *|Wake His peo- ple|lift your voice pro-|
 D2 D B,2 B, | (D3 C2) A | FDD D2 D | B,2 B, A,2 A, | A,2 D B,2 B, | E3- E2 E | DDD E2 E | %22
w: clain in to the|world! * Let|hea- ven re- joice and|earth be glad let|all cre- a- tion|sing, * let|chil- dren pro- claim to|
 F2 D B,2 B, | B,3 C3 | D3 G3 | A3- A2 A | G2 G G2 G | [FA]6 |] %28
w: ev'- ry land Ho-|san- na|to our|King * Ho-|san- na to ou|King!|
V:3
 z4 z A, | DA,A, A,2 F, | G,2 G, E,2 E, | F,2 A, G,2 G, | (D3 C2) C | B,B,B, C2 C | D2 A, F,2 F, | %7
w: Let|hea- ven re- joice and|earth be glad let|all cre- a- tion|sing, * let|chil- dren pro- claim to|ev'- ry land Ho-|
 G,2 G, A,2 G, | F,6 | F,2 F, F,2 B,, | E,D,E, F,2 B,, | E,F,G, B,2 B, | (B,3 _B,2) z | %13
w: san- na to our|King!|Sound the trum- pet|in to the night the|day of the Lord is|near, *|
 B,,2 D, C,2 E, | D,2 F, E,2 F, | B,2 B, G,2 G, | A,3- A,2 A, | DA,A, A,2 F, | G,2 G, E,2 E, | %19
w: Wake His peo- ple|lift your voice pro-|clain in to the|world! * Let|hea- ven re- joice and|earth be glad let|
 F,2 A, G,2 G, | (D3 C2) C | B,B,B, C2 C | D2 A, F,2 F, | G,3 A,3 | B,3 E3 | D3- D2 D | %26
w: all cre- a- tion|sing, * let|chil- dren pro- claim to|ev'- ry land Ho-|san- na|to our|King * Ho-|
 B,2 B, _B,2 B, | A,6 |] %28
w: san- na to ou|King!|
V:4
 z4 z A, | D,D,D, F,2 B,, | E,2 E, C,2 C, | D,2 D, E,2 E, | A,3- A,2 A, | G,G,G, A,2 G, | %6
w: Let|hea- ven re- joice and|earth be glad let|all cre- a- tion|sing, * let|chil- dren pro- claim to|
 D,2 D, B,,2 B,, | G,,2 G,, A,,2 A,, | D,6 | F,2 F, F,2 B,, | E,D,E, F,2 B,, | E,F,G, G,2 G, | %12
w: ev'- ry land Ho-|san- na to our|King!|Sound the trum- pet|in to the night the|day of the Lord is|
 F,3- F,2 z | B,,2 D, C,2 E, | D,2 F, E,2 F, | G,2 G, E,2 E, | [E,G,]3- [E,G,]2 A, | %17
w: near, *|Wake His peo- ple|lift your voice pro-|clain in to the|world! * Let|
 D,D,D, F,2 B,, | E,2 E, C,2 C, | D,2 D, E,2 E, | A,3- A,2 A, | G,G,G, A,2 G, | D,2 D, B,,2 B,, | %23
w: hea- ven re- joice and|earth be glad let|all cre- a- tion|sing, * let|chil- dren pro- claim to|ev'- ry land Ho-|
 E,3 F,3 | G,3 E,3 | D,3- D,2 D, | G,2 G, G,2 G, | D,6 |] %28
w: san- na|to our|King * Ho-|san- na to ou|King!|

